X:1230
T: Lord Mounteagle's
T: R\'il Thiarna Dhroim an Fhiolair
S: B.Breathnach:"Ceol Rince na hEireann" IV/131
Z: B.Black
L: 1/8
M: 4/4
R: reel
K: D
D2 AF Dgfe|dBAF GEEF|D2 AF D3B|Acde fd d2|
D2 AF Dgfe|dBAF GEEF|D2 AF D3B|Acde fd d ||
g|fdef gfed|cAeA fAeA|fdef gfed|defg fdd z|
fedc dcBA|GBAF GEEF|D2 FA D3B|Acde fd d2 ||
